X:1
T:Title
%%score { 1 | 2 }
L:1/8
M:4/4
K:F
V:1 treble nm="Grand Piano"
V:2 bass 
V:1
 z4 z2 z[Q:1/4=96] c | c2 c>d c2 [CF][DFG] |[M:7/8] [CFA]2 [A,CF]>[B,EG] [A,F]3 |[M:1/8] [A,F] | %4
[M:4/4] [B,FB]2 [Fc]>[Fd] c2 AF |[M:7/8] G2 A>G [Ec]3 |[M:1/8] [Ec] |[M:4/4] c2 c>d c2 A>[FA] | %8
 [FB]2 [Fc]>[Fc] [Fd]3 [Fd] | c2 c>d c F2 [DGB] |[M:7/8] [CFA]2 [A,CF]>[B,EG] [A,F]3 | %11
[M:1/8] [EG] |[M:4/4] [EG]2 [_E^F]>[=EG] [Ec]2 [Ec][Ge] | d2 A>=B [Ec]3 [CEc] | %14
 [CFf]2 [Fe]>[Fd] [Fc] [A,F]2 [B,FB] |[M:7/8] [CFA]2 [A,CF]>[B,EG] [A,F]3 |] %16
V:2
 z4 z2 z [F,A,F] | [F,A,F]2 [F,A,F]>[F,B,F] [F,A,F]2 A,,B,, |[M:7/8] C,2 C,>C, F,3 |[M:1/8] F, | %4
[M:4/4] D,2 [C,A,]>[B,,B,][K:treble] [F,A,F]2 [F,CF][A,C] | %5
[M:7/8] [G,CE]2 [G,=B,F]>[G,B,F][K:bass] [C,C]3 |[M:1/8] [C,B,] | %7
[M:4/4] [F,A,F]2 [F,A,F]>[F,B,F] [F,A,F]2 [F,CF]>[_E,C] | [D,B,]2 [C,A,]>[C,A,] [B,,B,]3 [D,B,] | %9
 [F,A,F]2 [F,A,F]>[F,B,F] [F,A,F] [D,A,]2 B,, |[M:7/8] C,2 C,>C, F,3 |[M:1/8] [C,C] | %12
[M:4/4] [C,C]2 [C,C]>[C,C] [C,C]2 [C,C][C,C] | [F,A,F]2 [G,DF]>[G,DF][K:bass] [C,C]3 [B,,B,] | %14
 [A,,A,]2 [B,,B,C]>[D,B,] [F,A,] F,2 D, |[M:7/8] C,2 C,>C, F,3 |] %16

